public/img/svg/quotes.svg

<svg fill="none" height="48" viewBox="0 0 63 48" width="63" xmlns="http://www.w3.org/2000/svg" xmlns:xlink="http://www.w3.org/1999/xlink"><linearGradient id="a" gradientUnits="userSpaceOnUse" x1="0" x2="46.284" y1="0" y2="60.3587"><stop offset="0" stop-color="#5f3dc1"/><stop offset="1" stop-color="#538f16"/></linearGradient><path d="m0 47.925v-12.6118c0-5.979 1.58816-12.2616 4.76448-18.8477 3.17631-6.63294 7.47372-12.12142 12.89212-16.4655l8.9684 7.28684c-3.4566 4.90456-6.1424 9.57566-8.0576 14.01316-1.9151 4.3908-2.8727 8.9684-2.8727 13.7329v12.8921zm35.8737 0v-12.6118c0-5.979 1.5881-12.2616 4.7645-18.8477 3.1763-6.63294 7.4737-12.12142 12.8921-16.4655l8.9684 7.28684c-3.4566 4.90456-6.1424 9.57566-8.0576 14.01316-1.9151 4.3908-2.8727 8.9684-2.8727 13.7329v12.8921z" fill="url(#a)"/></svg>

<svg width="63" height="48" viewBox="0 0 63 48" fill="none" xmlns="http://www.w3.org/2000/svg">
<path d="M0 47.925V35.3132C0 29.3342 1.58816 23.0516 4.76448 16.4655C7.94079 9.83256 12.2382 4.34408 17.6566 0L26.625 7.28684C23.1684 12.1914 20.4826 16.8625 18.5674 21.3C16.6523 25.6908 15.6947 30.2684 15.6947 35.0329V47.925H0ZM35.8737 47.925V35.3132C35.8737 29.3342 37.4618 23.0516 40.6382 16.4655C43.8145 9.83256 48.1119 4.34408 53.5303 0L62.4987 7.28684C59.0421 12.1914 56.3563 16.8625 54.4411 21.3C52.526 25.6908 51.5684 30.2684 51.5684 35.0329V47.925H35.8737Z" fill="url(#paint0_linear)"/>
<defs>
<linearGradient id="paint0_linear" x1="0" y1="0" x2="46.284" y2="60.3587" gradientUnits="userSpaceOnUse">
<stop stop-color="#5F3DC1"/>
<stop offset="1" stop-color="#538F16"/>
</linearGradient>
</defs>
</svg>
